apps/web/public/icons/dropdown/terms.svg

<svg width="21" height="21" viewBox="0 0 21 21" fill="none" xmlns="http://www.w3.org/2000/svg">
<path d="M10.1222 0C15.7127 0 20.2444 4.53172 20.2444 10.1222C20.2444 15.7127 15.7127 20.2444 10.1222 20.2444C4.53172 20.2444 0 15.7127 0 10.1222C0 4.53172 4.53172 0 10.1222 0ZM10.1222 2.02444C7.97456 2.02444 5.91486 2.8776 4.39623 4.39623C2.8776 5.91486 2.02444 7.97456 2.02444 10.1222C2.02444 12.2699 2.8776 14.3296 4.39623 15.8482C5.91486 17.3668 7.97456 18.22 10.1222 18.22C12.2699 18.22 14.3296 17.3668 15.8482 15.8482C17.3668 14.3296 18.22 12.2699 18.22 10.1222C18.22 7.97456 17.3668 5.91486 15.8482 4.39623C14.3296 2.8776 12.2699 2.02444 10.1222 2.02444ZM10.1222 14.1711C10.3907 14.1711 10.6481 14.2778 10.838 14.4676C11.0278 14.6574 11.1344 14.9149 11.1344 15.1833C11.1344 15.4518 11.0278 15.7093 10.838 15.8991C10.6481 16.0889 10.3907 16.1956 10.1222 16.1956C9.85376 16.1956 9.5963 16.0889 9.40647 15.8991C9.21664 15.7093 9.11 15.4518 9.11 15.1833C9.11 14.9149 9.21664 14.6574 9.40647 14.4676C9.5963 14.2778 9.85376 14.1711 10.1222 14.1711ZM10.1222 4.555C10.9748 4.55503 11.8008 4.85194 12.4582 5.39474C13.1157 5.93754 13.5636 6.69234 13.725 7.52949C13.8865 8.36664 13.7514 9.23388 13.3429 9.98224C12.9344 10.7306 12.2781 11.3134 11.4867 11.6304C11.3695 11.6735 11.2638 11.7432 11.178 11.8339C11.1334 11.8845 11.1263 11.9493 11.1274 12.0161L11.1344 12.1467C11.1342 12.4047 11.0354 12.6528 10.8583 12.8404C10.6812 13.028 10.4391 13.1409 10.1815 13.156C9.92399 13.1711 9.67039 13.0873 9.47254 12.9218C9.2747 12.7562 9.14756 12.5213 9.11709 12.2651L9.11 12.1467V11.8936C9.11 10.7265 10.0514 10.0261 10.7336 9.75175C11.0113 9.64087 11.2535 9.45645 11.4342 9.21829C11.615 8.98014 11.7275 8.69724 11.7596 8.39998C11.7917 8.10273 11.7422 7.80234 11.6165 7.53108C11.4908 7.25981 11.2935 7.02793 11.0459 6.86031C10.7983 6.6927 10.5098 6.5957 10.2112 6.57972C9.91264 6.56374 9.61537 6.62938 9.35131 6.76961C9.08724 6.90984 8.86637 7.11935 8.71239 7.37564C8.55842 7.63193 8.47717 7.92532 8.47736 8.22431C8.47736 8.49276 8.37072 8.75023 8.18089 8.94005C7.99106 9.12988 7.7336 9.23653 7.46514 9.23653C7.19668 9.23653 6.93922 9.12988 6.74939 8.94005C6.55956 8.75023 6.45292 8.49276 6.45292 8.22431C6.45292 7.25114 6.8395 6.31784 7.52763 5.62971C8.21576 4.94159 9.14906 4.555 10.1222 4.555Z" fill="#DFDFDF"/>
</svg>

<svg xmlns="http://www.w3.org/2000/svg" width="21" height="21" fill="none" viewBox="0 0 21 21"><path fill="#dfdfdf" d="M10.122 0c5.59 0 10.122 4.532 10.122 10.122s-4.531 10.122-10.122 10.122C4.532 20.244 0 15.713 0 10.122 0 4.532 4.532 0 10.122 0m0 2.024a8.098 8.098 0 1 0 0 16.196 8.098 8.098 0 0 0 0-16.196m0 12.147a1.013 1.013 0 1 1 0 2.025 1.013 1.013 0 0 1 0-2.025m0-9.616a3.67 3.67 0 0 1 1.365 7.075.8.8 0 0 0-.309.204c-.045.05-.052.115-.05.182l.006.13a1.012 1.012 0 0 1-2.017.12l-.007-.12v-.252c0-1.168.941-1.868 1.624-2.142a1.645 1.645 0 1 0-2.257-1.528 1.012 1.012 0 1 1-2.024 0 3.67 3.67 0 0 1 3.67-3.669"/></svg>
